X:1
T:Bruneau Dunes, SM
T:Bruneau Dunes, SM
T:George Nathaniel Fenn, 1904
T:Public Domain Courtesy of the Cyber Hymnal™
C:George Nathaniel Fenn, 1904
Z:Public Domain
Z:Courtesy of the Cyber Hymnal™
%%score ( 1 2 ) ( 3 4 )
L:1/8
Q:1/4=110
M:4/4
K:Ab
V:1 treble 
V:2 treble 
V:3 bass 
V:4 bass 
V:1
 E2 | [EA]2 [EA]2 [EB]2 [EB]2 | [Ec]6 [Gd]2 | [Ae]2 (cB) [FA]2 [Ac]2 | [GB]6 [Gd]2 | %5
 [Ac]2 [A=d]2 [Ge]2 A2 | [EB]2 [_Gc]2 [Fd]2 [=Gf]2 | (ec) (AB) [Ac]2 [EB]2 | [EA]6 |] %9
V:2
 E2 | x8 | x8 | x2 G2 x4 | x8 | x6 A2 | x8 | A2 A2 x4 | x6 |] %9
V:3
 E,2 | [A,,C]2 [C,A,]2 [E,G,]2 [D,G,]2 | [C,A,]6 [B,,D]2 | [A,,C]2 [C,=E]2 [D,F]2 [B,,=D]2 | %4
 [E,E]6 [E,E]2 | [A,E]2 [F,B,]2 [E,B,]2 [C,A,]2 | [E,G,]2 A,2 [D,A,]2 [B,,D]2 | %7
 (CE) [=D,F]2 [E,E]2 [E,_D]2 | [A,,C]6 |] %9
V:4
 E,2 | x8 | x8 | x8 | x8 | x8 | x2 A,2 x4 | C,2 x6 | x6 |] %9

